X:1
T:Farewell Spanish Ladies
C:anon.
L:1/4
M:3/4
I:linebreak $
K:C
V:1 treble 
V:1
 E | A A ^G | A2 A/>B/ | c B A | ^G E E | A A ^G | A2 A/>B/ | c B A | B2 B | c B A | d c B | %11
 e A B |$ ^G/^F/ E e/>d/ | c B A | ^G E E | E A ^G | A2 z |] %17
